svg/aws-ec2-m5n.svg

<?xml version="1.0" encoding="UTF-8"?>
<svg xmlns="http://www.w3.org/2000/svg" xmlns:xlink="http://www.w3.org/1999/xlink" width="32" height="32" viewBox="0 0 32 32">
<path fill-rule="evenodd" fill="rgb(83.137255%, 35.686275%, 2.745098%)" fill-opacity="1" d="M 21.398438 19.257812 L 20.296875 19.257812 L 20.296875 14.503906 L 21.214844 14.503906 L 21.324219 15.027344 C 21.910156 14.585938 22.519531 14.367188 23.15625 14.367188 C 23.609375 14.367188 23.953125 14.484375 24.191406 14.726562 C 24.425781 14.964844 24.546875 15.3125 24.546875 15.765625 L 24.546875 19.257812 L 23.441406 19.257812 L 23.441406 16.109375 C 23.441406 15.804688 23.382812 15.582031 23.257812 15.441406 C 23.132812 15.304688 22.933594 15.234375 22.660156 15.234375 C 22.25 15.234375 21.828125 15.371094 21.398438 15.644531 Z M 16.78125 19.394531 C 16.164062 19.394531 15.554688 19.269531 14.988281 19.023438 L 14.988281 18.144531 C 15.667969 18.375 16.257812 18.492188 16.75 18.492188 C 17.671875 18.492188 18.132812 18.09375 18.132812 17.296875 C 18.132812 16.910156 18.019531 16.628906 17.785156 16.453125 C 17.554688 16.273438 17.183594 16.1875 16.679688 16.1875 C 16.300781 16.1875 15.828125 16.214844 15.257812 16.277344 L 15.257812 15.570312 L 15.4375 12.789062 L 18.945312 12.789062 L 18.945312 13.675781 L 16.476562 13.675781 L 16.371094 15.402344 C 16.625 15.351562 16.894531 15.328125 17.179688 15.328125 C 17.828125 15.328125 18.335938 15.5 18.707031 15.851562 C 19.078125 16.199219 19.261719 16.675781 19.261719 17.277344 C 19.261719 17.925781 19.039062 18.4375 18.589844 18.824219 C 18.144531 19.203125 17.539062 19.394531 16.78125 19.394531 M 8.5 19.257812 L 7.457031 19.257812 L 7.457031 12.789062 L 8.726562 12.789062 L 10.667969 16.644531 L 12.644531 12.789062 L 13.878906 12.789062 L 13.878906 19.257812 L 12.832031 19.257812 L 12.832031 14.410156 L 11.152344 17.632812 L 10.125 17.632812 L 8.5 14.429688 Z M 6 26 L 26 26 L 26 6 L 6 6 Z M 30.667969 8.667969 L 30.667969 7.332031 L 27.332031 7.332031 L 27.332031 5.332031 C 27.332031 4.964844 27.035156 4.667969 26.667969 4.667969 L 24.667969 4.667969 L 24.667969 1.332031 L 23.332031 1.332031 L 23.332031 4.667969 L 20.667969 4.667969 L 20.667969 1.332031 L 19.332031 1.332031 L 19.332031 4.667969 L 16.667969 4.667969 L 16.667969 1.332031 L 15.332031 1.332031 L 15.332031 4.667969 L 12.667969 4.667969 L 12.667969 1.332031 L 11.332031 1.332031 L 11.332031 4.667969 L 8.667969 4.667969 L 8.667969 1.332031 L 7.332031 1.332031 L 7.332031 4.667969 L 5.332031 4.667969 C 4.964844 4.667969 4.667969 4.964844 4.667969 5.332031 L 4.667969 7.332031 L 1.332031 7.332031 L 1.332031 8.667969 L 4.667969 8.667969 L 4.667969 11.332031 L 1.332031 11.332031 L 1.332031 12.667969 L 4.667969 12.667969 L 4.667969 15.332031 L 1.332031 15.332031 L 1.332031 16.667969 L 4.667969 16.667969 L 4.667969 19.332031 L 1.332031 19.332031 L 1.332031 20.667969 L 4.667969 20.667969 L 4.667969 23.332031 L 1.332031 23.332031 L 1.332031 24.667969 L 4.667969 24.667969 L 4.667969 26.667969 C 4.667969 27.035156 4.964844 27.332031 5.332031 27.332031 L 7.332031 27.332031 L 7.332031 30.667969 L 8.667969 30.667969 L 8.667969 27.332031 L 11.332031 27.332031 L 11.332031 30.667969 L 12.667969 30.667969 L 12.667969 27.332031 L 15.332031 27.332031 L 15.332031 30.667969 L 16.667969 30.667969 L 16.667969 27.332031 L 19.332031 27.332031 L 19.332031 30.667969 L 20.667969 30.667969 L 20.667969 27.332031 L 23.332031 27.332031 L 23.332031 30.667969 L 24.667969 30.667969 L 24.667969 27.332031 L 26.667969 27.332031 C 27.035156 27.332031 27.332031 27.035156 27.332031 26.667969 L 27.332031 24.667969 L 30.667969 24.667969 L 30.667969 23.332031 L 27.332031 23.332031 L 27.332031 20.667969 L 30.667969 20.667969 L 30.667969 19.332031 L 27.332031 19.332031 L 27.332031 16.667969 L 30.667969 16.667969 L 30.667969 15.332031 L 27.332031 15.332031 L 27.332031 12.667969 L 30.667969 12.667969 L 30.667969 11.332031 L 27.332031 11.332031 L 27.332031 8.667969 Z M 30.667969 8.667969 "/>
</svg>

<svg role="img" viewBox="0 0 32 32" xmlns="http://www.w3.org/2000/svg"><path d="M21.398 19.258h-1.101v-4.754h.918l.11.523q.877-.66 1.831-.66c.453 0 .797.117 1.035.36q.354.357.356 1.039v3.492H23.44v-3.149c0-.304-.058-.527-.183-.668q-.187-.206-.598-.207-.616 0-1.262.41Zm-4.617.137a4.5 4.5 0 0 1-1.793-.372v-.878c.68.23 1.27.347 1.762.347q1.383 0 1.383-1.195c0-.387-.113-.668-.348-.844-.23-.18-.601-.265-1.105-.265-.38 0-.852.027-1.422.09v-.708l.18-2.78h3.507v.886h-2.468l-.106 1.726q.381-.075.809-.074.971-.002 1.527.524.556.522.555 1.425c0 .649-.223 1.16-.672 1.547q-.669.57-1.809.57M8.5 19.258H7.457v-6.469h1.27l1.941 3.856 1.977-3.856h1.234v6.469h-1.047V14.41l-1.68 3.223h-1.027L8.5 14.43ZM6 26h20V6H6ZM30.668 8.668V7.332h-3.336v-2a.664.664 0 0 0-.664-.664h-2V1.332h-1.336v3.336h-2.664V1.332h-1.336v3.336h-2.664V1.332h-1.336v3.336h-2.664V1.332h-1.336v3.336H8.668V1.332H7.332v3.336h-2a.664.664 0 0 0-.664.664v2H1.332v1.336h3.336v2.664H1.332v1.336h3.336v2.664H1.332v1.336h3.336v2.664H1.332v1.336h3.336v2.664H1.332v1.336h3.336v2c0 .367.297.664.664.664h2v3.336h1.336v-3.336h2.664v3.336h1.336v-3.336h2.664v3.336h1.336v-3.336h2.664v3.336h1.336v-3.336h2.664v3.336h1.336v-3.336h2a.664.664 0 0 0 .664-.664v-2h3.336v-1.336h-3.336v-2.664h3.336v-1.336h-3.336v-2.664h3.336v-1.336h-3.336v-2.664h3.336v-1.336h-3.336V8.668Zm0 0" fill="rgb(83.137256%, 35.686275%, 2.745098%)" fill-rule="evenodd"/></svg>
